studio/luts/color/Saorín · 65 puntos.cube
TITLE "Generated by Resolve"
LUT_3D_SIZE 65
0.119554 0.0133364 0
0.0798962 0.0151675 0
0.0509194 0.0145113 0
0.0209354 0.00994888 0.000549325
0 0.0009308 0.0130312
0 0 0.024918
0 0 0.0336004
0 0 0.0341344
0.00486763 0 0.0338293
0.0280766 0 0.0335851
0.0521859 0 0.0323491
0.0770886 0 0.0289921
0.101045 0 0.0246891
0.124651 0 0.0206455
0.148425 0 0.0168002
0.172137 0 0.0130465
0.195315 0 0.00946059
0.217288 0 0.00631724
0.238239 0 0.00315862
0.258824 0 0.000335698
0.278508 0 0
0.297856 0 0
0.316167 0 0
0.334432 0 0
0.351888 0 0
0.369162 0.00167849 0
0.384619 0.00373846 0
0.398764 0.00573739 0
0.413016 0.00782788 0
0.427131 0.00978103 0
0.440879 0.011902 0
0.452674 0.0136416 0
0.466133 0.0158541 0
0.484337 0.0185397 0
0.50631 0.0219577 0
0.529061 0.02533 0
0.553414 0.0291752 0
0.578042 0.0330205 0
0.603983 0.0372625 0
0.630411 0.0417334 0
0.656901 0.046128 0
0.684489 0.0509651 0
0.712032 0.0556954 0
0.742657 0.0610971 0
0.77499 0.0665751 0
0.808331 0.0724498 0
0.838941 0.0778058 0
0.869459 0.0834058 0
0.899123 0.0889143 0
0.928145 0.0941787 0
0.957565 0.0997024 0
0.986145 0.104936 0
1 0.11046 0
1 0.115663 0
1 0.121187 0
1 0.126421 0
1 0.131975 0
1 0.137316 0
1 0.14287 0
1 0.148333 0
1 0.153658 0
1 0.159213 0
1 0.164462 0
1 0.170001 0
1 0.174823 0
0.16321 0 0
0.130587 0.00451667 0
0.0994736 0.0122377 0
0.0720378 0.0162661 0
0.0427558 0.0167086 0
0.0117647 0.0113222 0.0108644
0 0 0.0235599
0 0 0.0320134
0.00262455 0 0.0319829
0.0256809 0 0.0315099
0.0495308 0 0.0301213
0.0745556 0 0.0265507
0.0986648 0 0.0224613
0.122515 0 0.0187228
0.145586 0 0.0150759
0.169284 0 0.0116579
0.192401 0 0.00830091
0.214572 0 0.0052491
0.235645 0.000991836 0.00251774
0.256016 0.00341802 0
0.27602 0.00601205 0
0.295186 0.00831617 0
0.313954 0.0107881 0
0.331838 0.0129854 0
0.349584 0.0153658 0
0.366644 0.0175021 0
0.382406 0.0196994 0
0.396765 0.0217594 0
0.410742 0.0236515 0
0.425086 0.025803 0
0.438697 0.0277104 0
0.450736 0.0296483 0
0.46392 0.0316167 0
0.482292 0.0344854 0
0.503914 0.0376287 0
0.527062 0.0412451 0
0.551202 0.0449073 0
0.576272 0.0488746 0
0.602152 0.0531014 0
0.628199 0.0573434 0
0.655329 0.0619974 0
0.682399 0.0665446 0
0.710613 0.0715343 0
0.740612 0.0766461 0
0.773831 0.0824292 0
0.806439 0.0879835 0
0.837873 0.0936446 0
0.867796 0.0989548 0
0.897627 0.104479 0
0.92697 0.10988 0
0.955978 0.115236 0
0.985306 0.120745 0
1 0.125948 0
1 0.131472 0
1 0.136675 0
1 0.141726 0
1 0.146975 0
1 0.15256 0
1 0.15787 0
1 0.163409 0
1 0.168765 0
1 0.174197 0
1 0.179736 0
1 0.18497 0
1 0.190555 0
0.185016 0 0
0.160388 0 0
0.134844 0 0
0.11165 0.00688182 0
0.0871595 0.0140993 0
0.0610208 0.0185702 0
0.0314794 0.0162814 0.00535592
0 0 0.0220188
0 0 0.0296635
0.0229648 0 0.0295262
0.0474556 0 0.0281071
0.0719463 0 0.0242161
0.0960555 0.000396735 0.0205539
0.119432 0.0031281 0.0170138
0.142672 0.00608835 0.013901
0.166125 0.00891127 0.0107118
0.18941 0.0117494 0.00766003
0.211734 0.0145266 0.00485237
0.232837 0.0169985 0.00207523
0.25333 0.0195926 0
0.273136 0.0218967 0
0.292607 0.0243839 0
0.311238 0.0265812 0
0.329412 0.0289921 0
0.346975 0.0311437 0
0.364355 0.0334783 0
0.380087 0.0355077 0
0.394446 0.0375067 0
0.408576 0.0395361 0
0.422797 0.0415045 0
0.436667 0.0436103 0
0.448554 0.0453193 0
0.462028 0.0474861 0
0.479896 0.0501106 0
0.50193 0.0534981 0
0.524712 0.0568399 0
0.549172 0.0606546 0
0.57406 0.0644388 0
0.600107 0.0686809 0
0.626261 0.0729992 0
0.653193 0.0775006 0
0.680903 0.0823224 0
0.708614 0.0870222 0
0.739467 0.0924392 0
0.771984 0.0979171 0
0.805463 0.103777 0
0.83621 0.108736 0
0.86685 0.114214 0
0.896162 0.119463 0
0.925734 0.124987 0
0.95523 0.130495 0
0.983856 0.135714 0
1 0.141222 0
1 0.146426 0
1 0.151934 0
1 0.157168 0
1 0.162707 0
1 0.167987 0
1 0.173587 0
1 0.178988 0
1 0.18436 0
1 0.189899 0
1 0.195132 0
1 0.200671 0
1 0.205951 0
0.196872 0 0
0.17499 0 0
0.152636 0 0
0.132265 0 0
0.112169 0.000274662 0
0.0917678 0.00860609 0
0 0 0.00303655
0 0 0.01149
0 0.00509651 0.0222934
0.0208438 0.010193 0.0280461
0.0455024 0.0106355 0.0260471
0.0696269 0.0134737 0.0225376
0.0930037 0.0161746 0.0192416
0.116594 0.0190433 0.0162966
0.139803 0.021622 0.0132906
0.163241 0.0244907 0.010544
0.18645 0.0271 0.00759899
0.208927 0.0298009 0.00495918
0.230259 0.0323644 0.00236515
0.25066 0.0350347 0
0.270817 0.0376593 0
0.290105 0.0399329 0
0.309087 0.042359 0
0.327169 0.0445106 0
0.344976 0.0468757 0
0.362158 0.0489662 0
0.37818 0.0511482 0
0.392386 0.0529488 0
0.406668 0.0550393 0
0.421057 0.0570077 0
0.434791 0.0587625 0
0.446937 0.0604868 0
0.460243 0.0624247 0
0.478447 0.0653086 0
0.499855 0.068452 0
0.522911 0.0720684 0
0.546944 0.0756085 0
0.572305 0.0796521 0
0.598444 0.0837873 0
0.62446 0.0880751 0
0.651789 0.0927291 0
0.678981 0.097261 0
0.707393 0.102235 0
0.73785 0.107378 0
0.771023 0.11313 0
0.803769 0.118685 0
0.835279 0.124331 0
0.865217 0.129595 0
0.895354 0.135149 0
0.924666 0.140505 0
0.953735 0.145876 0
0.983078 0.151369 0
1 0.156603 0
1 0.162097 0
1 0.167315 0
1 0.172824 0
1 0.178058 0
1 0.183627 0
1 0.188922 0
1 0.194461 0
1 0.199741 0
1 0.205219 0
1 0.210651 0
1 0.215961 0
1 0.221546 0
0.208286 0 0
0.188235 0 0
0.167147 0 0
0.147066 0 0
0.126543 0 0
0.106737 0 0.000808728
0 0.00378424 0.00143435
0 0.0105287 0.00927749
0 0.017258 0.016968
0.00973526 0.0228122 0.0237583
0.0422065 0.0272068 0.0245518
0.0659037 0.029633 0.0217899
0.0895247 0.0323033 0.0192264
0.112963 0.0347448 0.0164187
0.136599 0.0374456 0.0137636
0.160082 0.0399634 0.0109102
0.183505 0.0427558 0.00833143
0.206058 0.0453803 0.00572213
0.227436 0.0478065 0.00315862
0.248295 0.0503548 0.000823987
0.26804 0.0526284 0
0.287663 0.0550851 0
0.306462 0.0572366 0
0.324987 0.0596017 0
0.342535 0.0617227 0
0.359991 0.0640421 0
0.375952 0.0660105 0
0.390387 0.06804 0
0.404715 0.0699931 0
0.418921 0.0720226 0
0.432898 0.0741283 0
0.444862 0.0758221 0
0.458412 0.0779736 0
0.476555 0.0805829 0
0.498436 0.0839551 0
0.52134 0.0872816 0
0.545983 0.0910964 0
0.571023 0.0948653 0
0.597498 0.0991226 0
0.62356 0.103365 0
0.650889 0.107942 0
0.678645 0.112703 0
0.706783 0.117479 0
0.738293 0.122927 0
0.770947 0.12842 0
0.804395 0.134249 0
0.835157 0.139605 0
0.865904 0.145174 0
0.895338 0.150423 0
0.925231 0.155947 0
0.953811 0.161151 0
0.983215 0.166644 0
1 0.172152 0
1 0.177356 0
1 0.182864 0
1 0.188083 0
1 0.193606 0
1 0.198856 0
1 0.204456 0
1 0.209689 0
1 0.215213 0
1 0.220676 0
1 0.22594 0
1 0.231464 0
1 0.236713 0
0.226123 0 0
0.205676 0 0
0.184543 0 0.00680552
0.163882 0 0.0129549
0.142763 0 0.0191043
0 0.00563058 0
0 0.0131075 0
0 0.0208286 0.00205997
0 0.0296788 0.0117189
0.000106813 0.0406348 0.0159915
0.0387884 0.0406043 0.0211337
0.0590982 0.0349737 0.0193637
0.0808576 0.0354314 0.0168612
0.105394 0.0408789 0.0153506
0.129671 0.0456397 0.0132296
0.154208 0.0499733 0.0110018
0.177951 0.0536355 0.00852979
0.20116 0.0570993 0.0061799
0.222995 0.0601053 0.0037995
0.244144 0.062974 0.00154116
0.264591 0.0657511 0
0.284077 0.0682689 0
0.303319 0.0708629 0
0.321675 0.0731823 0
0.339757 0.0756695 0
0.356893 0.0778973 0
0.373236 0.0802167 0
0.387533 0.0820783 0
0.402029 0.0842145 0
0.416358 0.0861982 0
0.430274 0.0883497 0
0.442496 0.0903029 0
0.455817 0.092256 0
0.474266 0.09514 0
0.495857 0.0983139 0
0.519219 0.10193 0
0.543511 0.105516 0
0.569055 0.109575 0
0.595148 0.113603 0
0.621805 0.118074 0
0.649241 0.122698 0
0.676707 0.127291 0
0.705455 0.132296 0
0.7364 0.137484 0
0.770153 0.143282 0
0.802655 0.148806 0
0.834195 0.154437 0
0.86424 0.159716 0
0.894438 0.165255 0
0.923751 0.170535 0
0.952941 0.175952 0
0.982177 0.181353 0
1 0.186648 0
1 0.192126 0
1 0.197314 0
1 0.202823 0
1 0.208026 0
1 0.213565 0
1 0.21886 0
1 0.224369 0
1 0.229557 0
1 0.235065 0
1 0.240406 0
1 0.245777 0
1 0.251255 0
0.238041 0 0.0160525
0.216785 0 0.0231479
0.194507 0 0.0297246
0.171801 0 0.0337987
0 0.0099794 0
0 0.0184176 0
0 0.0271305 0
0 0.0372625 0.000610361
0 0.049012 0.0122835
0 0.060502 0.0158236
0.0271305 0.0601053 0.00766003
0.0601511 0.054612 0.0183413
0.0795758 0.0487831 0.0162966
0.0988022 0.0435187 0.012253
0.120317 0.0429999 0.00976577
0.143801 0.0470436 0.00787366
0.168338 0.0523995 0.00614939
0.191577 0.0573434 0.00425727
0.214191 0.0620127 0.00242618
0.235996 0.0662852 0.000564584
0.256809 0.0699931 0
0.276905 0.0736095 0
0.29633 0.0768139 0
0.315358 0.0800183 0
0.333547 0.0828717 0
0.351232 0.0858015 0
0.367727 0.0883345 0
0.382376 0.0907454 0
0.396902 0.0930343 0
0.411536 0.0954299 0
0.425589 0.0978103 0
0.437797 0.0998093 0
0.451392 0.102174 0
0.469581 0.105043 0
0.491798 0.10869 0
0.514672 0.112306 0
0.539452 0.11635 0
0.56466 0.120378 0
0.591379 0.124834 0
0.617838 0.129229 0
0.645304 0.134035 0
0.673136 0.138872 0
0.701671 0.143862 0
0.733425 0.149447 0
0.766552 0.155093 0
0.799939 0.161013 0
0.830808 0.166445 0
0.861677 0.172091 0
0.891188 0.177386 0
0.921187 0.182971 0
0.949935 0.18822 0
0.979339 0.193759 0
1 0.199084 0
1 0.204517 0
1 0.21004 0
1 0.215274 0
1 0.220798 0
1 0.226093 0
1 0.231708 0
1 0.236942 0
1 0.242466 0
1 0.2477 0
1 0.253208 0
1 0.258717 0
1 0.26392 0
0.245045 0 0.0390173
0.222431 0 0.0454108
0.196826 0 0.045182
0 0.0156405 0
0 0.0243687 0
0 0.033814 0
0 0.0445869 0
0 0.0564584 0.00111391
0 0.0699779 0.0136721
0 0.080827 0.0183719
0.0151522 0.0787366 0.000213626
0.0560006 0.0727092 0.0137942
0.0809644 0.0689403 0.0164187
0.100496 0.0631723 0.013962
0.118791 0.0573434 0.00958267
0.138903 0.0527657 0.00581369
0.160327 0.0515145 0.00297551
0.182788 0.0543832 0.00108339
0.204364 0.0584421 0
0.226017 0.0630655 0
0.247105 0.067628 0
0.267475 0.0719921 0
0.287221 0.0762341 0
0.306294 0.0800641 0
0.325032 0.0839094 0
0.342977 0.0873426 0
0.359899 0.0907301 0
0.374533 0.0934615 0
0.389425 0.096376 0
0.404105 0.0990768 0
0.418524 0.1019 0
0.430854 0.10428 0
0.444434 0.106889 0
0.462989 0.110384 0
0.485161 0.114275 0
0.508751 0.118563 0
0.533257 0.122805 0
0.559197 0.127474 0
0.585657 0.132052 0
0.612757 0.137026 0
0.640024 0.141863 0
0.668009 0.147082 0
0.697032 0.152468 0
0.728161 0.158038 0
0.762173 0.164218 0
0.795026 0.170092 0
0.826673 0.175998 0
0.856916 0.181521 0
0.887297 0.187289 0
0.916625 0.192721 0
0.946334 0.198398 0
0.97528 0.203876 0
1 0.209369 0
1 0.215 0
1 0.220325 0
1 0.225956 0
1 0.231281 0
1 0.236942 0
1 0.242313 0
1 0.247944 0
1 0.253254 0
1 0.258824 0
1 0.264179 0
1 0.269673 0
1 0.275166 0
0.246601 0 0.0567636
0.220691 0 0.0556649
0 0.0213626 0
0 0.0309606 0
0 0.0404669 0
0 0.0515145 0
0 0.0634012 0
0 0.0767834 0.00251774
0 0.0905013 0.0146181
0 0.101274 0.0222629
0.00637827 0.097322 0
0.0492714 0.0927291 0.00639353
0.0788434 0.0865339 0.0147555
0.10251 0.08336 0.0149233
0.121752 0.0776532 0.0121004
0.139803 0.0715801 0.00747692
0.159304 0.0664073 0.00309758
0.17879 0.0620584 0
0.198428 0.0605173 0
0.21825 0.0617227 0
0.238499 0.0647593 0
0.258503 0.068574 0
0.277882 0.0725414 0
0.296956 0.0767681 0
0.315465 0.0807813 0
0.333715 0.0848859 0
0.350835 0.0885939 0
0.365606 0.0919509 0
0.380407 0.0951247 0
0.395422 0.0984817 0
0.409995 0.10164 0
0.422477 0.104402 0
0.436133 0.107454 0
0.454353 0.111192 0
0.477028 0.115862 0
0.500542 0.120485 0
0.525521 0.12549 0
0.551202 0.130434 0
0.578393 0.135775 0
0.605249 0.140963 0
0.633433 0.146517 0
0.66125 0.15198 0
0.690303 0.157656 0
0.722301 0.163867 0
0.755932 0.170199 0
0.78996 0.176715 0
0.820829 0.18262 0
0.851926 0.188693 0
0.881697 0.1944 0
0.911864 0.20032 0
0.940948 0.205905 0
0.970535 0.211749 0
0.999176 0.217288 0
1 0.223026 0
1 0.228687 0
1 0.234257 0
1 0.240009 0
1 0.245502 0
1 0.25127 0
1 0.256733 0
1 0.262425 0
1 0.267826 0
1 0.273487 0
1 0.278874 0
1 0.28452 0
0.242847 0 0.0658274
0 0.0275273 0
0 0.0373541 0
0 0.0475776 0
0 0.0583352 0
0 0.0702068 0
0 0.0834211 0
0 0.097261 0.0039826
0 0.111101 0.0156252
0 0.12105 0.0229648
0 0.116075 0
0.0416266 0.11342 0.00112917
0.0751659 0.105379 0.0102998
0.101015 0.101503 0.013962
0.12372 0.0980697 0.013489
0.143023 0.0924239 0.0104067
0.161135 0.0861524 0.0056611
0.179767 0.0806287 0.00105287
0.197757 0.0757916 0
0.215778 0.0720226 0
0.233906 0.0697337 0
0.252338 0.0699321 0
0.270924 0.071809 0
0.288945 0.0744793 0
0.307164 0.0778668 0
0.324819 0.0813611 0
0.342107 0.0851453 0
0.356512 0.0883345 0
0.37145 0.0918135 0
0.386221 0.0951553 0
0.400946 0.0986496 0
0.413565 0.10161 0
0.426947 0.10486 0
0.445182 0.109056 0
0.467628 0.114031 0
0.491615 0.119387 0
0.51632 0.124697 0
0.542565 0.130404 0
0.569467 0.136049 0
0.596994 0.14197 0
0.624826 0.147784 0
0.653254 0.153887 0
0.682002 0.159838 0
0.714122 0.166522 0
0.748638 0.173571 0
0.782055 0.18024 0
0.814099 0.186816 0
0.844404 0.19292 0
0.875074 0.199237 0
0.904646 0.205173 0
0.934585 0.211322 0
0.963592 0.217121 0
0.992935 0.223133 0
1 0.229068 0
1 0.234806 0
1 0.240787 0
1 0.246448 0
1 0.252399 0
1 0.258091 0
1 0.264012 0
1 0.269566 0
1 0.27538 0
1 0.280903 0
1 0.286656 0
1 0.292271 0
0 0.0340887 0
0 0.0440528 0
0 0.0543679 0
0 0.0657511 0
0 0.0770123 0
0 0.0900435 0
0 0.103563 0
0 0.118029 0.00579843
0 0.131273 0.0163577
0 0.14052 0.0228428
0 0.13489 0
0.0343481 0.133486 0
0.0705119 0.126162 0.00564584
0.0979324 0.119036 0.0116579
0.123033 0.116609 0.0130922
0.145052 0.112856 0.0121462
0.164462 0.107286 0.00889601
0.182223 0.101061 0.00416571
0.19968 0.0955215 0
0.216693 0.0902876 0
0.233799 0.0861067 0
0.25069 0.0822919 0
0.26775 0.0796063 0
0.284855 0.078996 0
0.30161 0.0796521 0
0.318593 0.0814984 0
0.335058 0.0838026 0
0.349294 0.0863661 0
0.363485 0.0890516 0
0.378134 0.0921798 0
0.392508 0.0952621 0
0.405158 0.0982528 0
0.418326 0.101427 0
0.435966 0.105486 0
0.458488 0.110735 0
0.482017 0.116075 0
0.507317 0.121965 0
0.532876 0.127779 0
0.560281 0.134081 0
0.587411 0.140215 0
0.615869 0.146731 0
0.644129 0.153094 0
0.67332 0.159701 0
0.705257 0.166751 0
0.739391 0.174105 0
0.7738 0.181552 0
0.805386 0.188266 0
0.8365 0.195041 0
0.866545 0.201419 0
0.897002 0.20798 0
0.926284 0.214145 0
0.956146 0.220523 0
0.984817 0.226505 0
1 0.232776 0
1 0.238849 0
1 0.244923 0
1 0.251118 0
1 0.257023 0
1 0.263188 0
1 0.269032 0
1 0.275059 0
1 0.280781 0
1 0.286732 0
1 0.292409 0
1 0.298314 0
0 0.0507362 0
0 0.0613718 0
0 0.0727398 0
0 0.0845655 0
0 0.09691 0
0 0.110155 0
0 0.124498 0
0 0.138476 0.00729381
0 0.151492 0.0174105
0 0.159762 0.0228733
0 0.15465 0
0.0285039 0.153338 0
0.0650797 0.147173 0.00192264
0.0952773 0.138857 0.00834669
0.120119 0.133547 0.0117952
0.144961 0.131731 0.0122835
0.166659 0.127703 0.0108797
0.185626 0.122301 0.00755322
0.202609 0.11635 0.00303655
0.219303 0.110735 0
0.235462 0.105425 0
0.251743 0.100893 0
0.267964 0.09691 0
0.283879 0.09337 0
0.299748 0.0905013 0
0.315267 0.0887922 0
0.33109 0.0886549 0
0.344472 0.0892042 0
0.358297 0.0906233 0
0.372015 0.0923171 0
0.386084 0.0946212 0
0.398199 0.0967269 0
0.411017 0.099321 0
0.427909 0.1028 0
0.449744 0.107439 0
0.473304 0.112718 0
0.497887 0.118227 0
0.523888 0.124331 0
0.5505 0.130495 0
0.578073 0.137102 0
0.605982 0.143664 0
0.634699 0.150561 0
0.663615 0.157336 0
0.69546 0.164828 0
0.729641 0.172625 0
0.763958 0.180438 0
0.796475 0.187884 0
0.826978 0.194736 0
0.857862 0.20177 0
0.887648 0.208377 0
0.9178 0.215167 0
0.947021 0.221576 0
0.976745 0.228199 0
1 0.23444 0
1 0.240955 0
1 0.24741 0
1 0.253574 0
1 0.260014 0
1 0.266117 0
1 0.272496 0
1 0.278462 0
1 0.284672 0
1 0.290562 0
1 0.296696 0
1 0.302602 0
0 0.0685893 0
0 0.0798657 0
0 0.0916762 0
0 0.104433 0
0 0.116991 0
0 0.130907 0
0 0.145083 0
0 0.159213 0.00895705
0 0.171344 0.0180514
0 0.179355 0.0230716
0 0.174762 9.15541e-05
0.0230564 0.172763 0
0.0599374 0.16791 0
0.091722 0.159609 0.00511177
0.118212 0.152255 0.00961318
0.142397 0.148592 0.0114137
0.167025 0.146807 0.0114443
0.188006 0.142657 0.00968948
0.206088 0.137591 0.00650034
0.222583 0.131868 0.00218204
0.238697 0.126284 0
0.254047 0.120867 0
0.269673 0.116182 0
0.284993 0.11191 0
0.300267 0.108217 0
0.315267 0.105119 0
0.329976 0.102098 0
0.342779 0.100099 0
0.355596 0.0988327 0
0.368734 0.0986801 0
0.381964 0.0989853 0
0.393835 0.0999924 0
0.405875 0.101228 0
0.422171 0.103487 0
0.443259 0.10692 0
0.465797 0.110933 0
0.490242 0.115892 0
0.515496 0.121248 0
0.542046 0.127275 0
0.568841 0.133455 0
0.596979 0.1402 0
0.624918 0.146868 0
0.654292 0.15404 0
0.68542 0.161563 0
0.719738 0.169726 0
0.754284 0.177951 0
0.786221 0.185473 0
0.817731 0.193011 0
0.847776 0.200061 0
0.878386 0.207294 0
0.907866 0.214115 0
0.937881 0.221118 0
0.966995 0.227741 0
0.996597 0.234562 0
1 0.241123 0
1 0.247807 0
1 0.254459 0
1 0.26096 0
1 0.267628 0
1 0.273976 0
1 0.280461 0
1 0.286595 0
1 0.292973 0
1 0.299016 0
1 0.305318 0
0 0.0869459 0
0 0.0988632 0
0 0.111299 0
0 0.124468 0
0 0.137743 0
0 0.151568 0
0 0.166064 0
0 0.179614 0.0103456
0 0.191409 0.0189059
0 0.198657 0.0231479
0 0.195041 0.00433356
0.0179141 0.192126 0
0.0551308 0.188296 0
0.0881514 0.180758 0.00251774
0.115953 0.172137 0.00712596
0.140642 0.166323 0.010132
0.16527 0.163943 0.0109255
0.188861 0.161868 0.0106355
0.208499 0.15787 0.0087129
0.226078 0.153063 0.00563058
0.242161 0.14757 0.00151064
0.25774 0.142061 0
0.272663 0.136782 0
0.28748 0.131899 0
0.302296 0.127611 0
0.316625 0.123629 0
0.331014 0.120317 0
0.343297 0.117479 0
0.355795 0.115129 0
0.368093 0.112779 0
0.380728 0.110933 0
0.391821 0.109728 0
0.403296 0.109377 0
0.418357 0.109407 0
0.438224 0.110536 0
0.460121 0.112779 0
0.483406 0.115953 0
0.508354 0.120256 0
0.53402 0.125139 0
0.5608 0.130877 0
0.588083 0.136919 0
0.616358 0.143603 0
0.644999 0.150378 0
0.676158 0.157961 0
0.709789 0.166003 0
0.744091 0.174334 0
0.776425 0.182208 0
0.807431 0.189761 0
0.838209 0.19733 0
0.867887 0.204486 0
0.898116 0.211856 0
0.927428 0.21886 0
0.95729 0.226047 0
0.986404 0.232868 0
1 0.239902 0
