studio/luts/color/Saorín · 65 puntos.cube
TITLE "Generated by Resolve"
LUT_3D_SIZE 9
0.119554 0.0133364 0
0.00486763 0 0.0338293
0.195315 0 0.00946059
0.351888 0 0
0.466133 0.0158541 0
0.656901 0.046128 0
0.899123 0.0889143 0
1 0.131975 0
1 0.174823 0
0.246601 0 0.0567636
0 0.0905013 0.0146181
0.159304 0.0664073 0.00309758
0.315465 0.0807813 0
0.436133 0.107454 0
0.633433 0.146517 0
0.881697 0.1944 0
1 0.240009 0
1 0.28452 0
0 0.14612 0
0 0.250477 0.0212253
0.16022 0.218708 0.007187
0.312871 0.190326 0
0.406317 0.161364 0
0.569772 0.142443 0
0.808652 0.186236 0
1 0.244709 0
1 0.302342 0
0 0.315953 0
0 0.407324 0.0282597
0.145968 0.38407 0
0.321736 0.337362 0.00695811
0.436835 0.324636 0.00108339
0.575525 0.283436 0
0.770825 0.244572 0
0.97348 0.23743 0
1 0.272831 0
0 0.478401 0
0 0.553323 0.0375372
0.131411 0.533364 0
0.323507 0.476402 0.00454719
0.44332 0.454475 0.00636301
0.599771 0.437446 0
0.779583 0.386526 0
0.958038 0.34696 0
1 0.319051 0
0 0.72134 0.0286412
0 0.768643 0.0536202
0.1178 0.738567 0
0.329274 0.682551 0.00144961
0.451865 0.632227 0.00581369
0.613809 0.607675 0.00755322
0.817823 0.590951 0
0.984527 0.55375 0
1 0.51194 0
0 1 0.0808576
0 1 0.081651
0.107454 1 0
0.328771 0.986297 0
0.466941 0.919814 0.00360113
0.640208 0.842832 0.00999466
0.853681 0.818524 0.0117952
1 0.803571 0.000579843
1 0.760555 0
0 1 0.121675
0 1 0.102113
0.0960708 1 0
0.316457 1 0
0.464591 1 0
0.658595 1 0.00794995
0.863035 1 0.0118563
1 0.993317 0.0121309
1 0.971466 0
0 1 0.141665
0 1 0.107988
0.0777295 1 0
0.297734 1 0
0.452186 1 0
0.65565 1 0.00337224
0.864393 1 0.00852979
1 1 0.0103304
1 1 0.0099031
0 0 0.0857099
0.00221256 0 0.148409
0.194186 0 0.137148
0.360265 0 0.108766
0.477363 0 0.0906844
0.671473 0.0269017 0.068452
0.914305 0.0714733 0.0484016
1 0.116091 0.0329595
1 0.159808 0.0173495
0 0 0.0292515
0 0.0418708 0.0883497
0.186923 0.0871443 0.123659
0.349432 0.108446 0.100816
0.465599 0.12549 0.0884871
0.661097 0.15671 0.071397
0.906905 0.199771 0.0543374
1 0.242679 0.0408942
1 0.285878 0.0266575
0 0.0869764 0
0 0.158831 0.0599985
0.128908 0.223362 0.0611124
0.310567 0.180865 0.0885023
0.41886 0.178012 0.0773327
0.612345 0.22269 0.0682841
0.862821 0.27953 0.0562142
1 0.329137 0.0448005
1 0.376013 0.0316777
0 0.223011 0
0 0.325628 0.0809949
0.0280003 0.36936 0
0.316457 0.333776 0.0823224
0.431708 0.312566 0.0809491
0.573861 0.275837 0.055024
0.784344 0.26331 0.0322576
1 0.307012 0.02327
1 0.363058 0.0139467
0 0.379843 0.0209812
0 0.486351 0.104829
0 0.50428 0
0.291417 0.475975 0.0450599
0.43711 0.449042 0.0769055
0.592782 0.42472 0.07187
0.773617 0.37879 0.0373693
0.960037 0.348363 0.00946059
1 0.349035 0
0 0.628809 0.0698863
0 0.71754 0.135698
0 0.699886 0
0.254612 0.676295 0.00701915
0.427741 0.626795 0.0520638
0.604044 0.598184 0.0745861
0.805264 0.574563 0.0661021
0.970199 0.538613 0.0344854
1 0.50161 0
0 0.997604 0.140063
0 1 0.177707
0 0.993667 0
0.218708 0.964599 0
0.405035 0.906401 0.0149996
0.613443 0.829282 0.0604257
0.834516 0.79971 0.0762036
1 0.778286 0.0685435
1 0.73611 0.0390936
0 1 0.192889
0 1 0.208103
0 1 0
0.189059 1 0
0.375326 1 0
0.609583 1 0.0357519
0.835508 0.987152 0.0698863
1 0.971328 0.0749676
1 0.9449 0.0656291
0 1 0.218723
0 1 0.220706
0 1 0
0.160555 1 0
0.346014 1 0
0.584985 1 0.012665
0.825437 1 0.0512398
1 1 0.0695354
1 1 0.0719463
0 0 0.201968
0 0 0.256962
0.186816 0 0.25124
0.35346 0 0.239017
0.477195 0 0.219638
0.678691 0.00329595 0.191852
0.925734 0.0493477 0.166064
1 0.0951553 0.147631
1 0.140352 0.13048
0 0 0.118959
0 0.0454108 0.211902
0.181735 0.0809949 0.248386
0.353872 0.0852064 0.231586
0.475959 0.102281 0.21091
0.674861 0.135973 0.186419
0.922667 0.181704 0.165164
1 0.22591 0.149783
1 0.269734 0.13492
0 0.0805219 0.102968
0 0.131075 0.153552
0.0955978 0.179324 0.215457
0.342138 0.220401 0.216999
0.46067 0.237018 0.203861
0.653162 0.266667 0.186267
0.897704 0.308675 0.16875
1 0.350301 0.154665
1 0.391577 0.14023
0 0.173587 0.06215
0 0.237278 0.121538
0.00570687 0.32398 0.149065
0.316442 0.336187 0.186679
0.42855 0.305379 0.186282
0.587732 0.292134 0.166659
0.826902 0.348211 0.157946
1 0.403449 0.148653
1 0.45333 0.136309
0 0.295323 0.0599069
0 0.38294 0.137133
0 0.475486 0.136934
0.227558 0.483421 0.0822156
0.43566 0.448463 0.169574
0.587366 0.414969 0.166125
0.773159 0.374395 0.137148
0.973617 0.376379 0.120134
1 0.421729 0.110338
0 0.524361 0.0989242
0 0.622217 0.181811
0 0.68159 0.126543
0.141192 0.666484 0.0173342
0.395605 0.627543 0.102129
0.597391 0.59202 0.158495
0.792782 0.55903 0.152865
0.956405 0.52224 0.124132
1 0.489784 0.0930037
0 0.894682 0.179477
0 0.975097 0.245487
0 0.978576 0.108309
0.0815137 0.933913 0
0.322255 0.892958 0.0269627
0.583825 0.818494 0.116472
0.816999 0.782727 0.15317
0.994125 0.754055 0.148013
1 0.708202 0.120424
0 1 0.245502
0 1 0.288289
0 1 0.0972457
0.0428779 1 0
0.266011 1 0
0.548714 1 0.0622873
0.807584 0.970947 0.135882
1 0.950866 0.148318
1 0.91928 0.141588
0 1 0.279408
0 1 0.306752
0 1 0.100999
0.00807202 1 0
0.221759 1 0
0.497124 1 0.0194858
0.781216 1 0.0954299
0.991775 1 0.136919
1 1 0.143114
0 0 0.324041
0 0 0.370138
0.180056 0 0.366354
0.345663 0 0.361852
0.46804 0 0.354253
0.675776 0 0.330419
0.93138 0.0242618 0.301885
1 0.0702373 0.280278
1 0.116442 0.261784
0 0 0.237507
0 0.0551003 0.336034
0.173236 0.0819562 0.365789
0.344991 0.0797589 0.361303
0.470512 0.0842298 0.350866
0.680293 0.11104 0.322667
0.9346 0.157168 0.295903
1 0.202838 0.277409
1 0.247593 0.261112
0 0.0380255 0.178607
0 0.102937 0.247181
0.128954 0.187381 0.347173
0.339269 0.205264 0.35671
0.468009 0.212528 0.339895
0.668299 0.244144 0.311604
0.913252 0.288518 0.289647
1 0.331655 0.274403
1 0.373632 0.259403
0 0.179812 0.185
0 0.228931 0.23415
0.00883497 0.267887 0.274556
0.297292 0.326879 0.337942
0.453178 0.345922 0.323522
0.637385 0.372763 0.305898
0.874357 0.411917 0.288701
1 0.451453 0.275029
1 0.490135 0.260304
0 0.256855 0.140246
0 0.313497 0.194354
0 0.379873 0.243534
0.134951 0.481025 0.208331
0.437095 0.45098 0.287404
0.584772 0.410468 0.280812
0.795026 0.417426 0.263462
1 0.474022 0.257923
1 0.526268 0.247822
0 0.433509 0.140749
0 0.512001 0.213825
0 0.598428 0.258701
0.0506294 0.651774 0.129061
0.33228 0.635462 0.149859
0.593408 0.588693 0.261921
0.780621 0.545983 0.256291
0.948119 0.511925 0.229526
1 0.495155 0.205432
0 0.774838 0.210727
0 0.861585 0.28893
0 0.9187 0.262699
0 0.905348 0.0768597
0.206119 0.876326 0.0496986
0.544472 0.813275 0.174914
0.801144 0.767559 0.245716
0.975158 0.730465 0.241917
1 0.682719 0.214862
0 1 0.284291
0 1 0.346929
0 1 0.258869
0 1 0.0528572
0.130602 1 0.000671397
0.464897 1 0.086244
0.77821 0.95816 0.209766
0.989441 0.932723 0.234501
1 0.895003 0.229618
0 1 0.326558
0 1 0.375601
0 1 0.261921
0 1 0.0416571
0.0775158 1 0
0.384024 1 0.0264286
0.726558 1 0.138735
0.966995 1 0.21384
1 1 0.225345
0 0 0.445075
0 0 0.483803
0.175952 0 0.481117
0.342611 0 0.477867
0.462867 0 0.476921
0.667277 0 0.468528
0.930907 0.0027924 0.446784
1 0.0448157 0.428428
1 0.0892653 0.411994
0 0 0.364446
0 0.0623331 0.45713
0.169619 0.0835126 0.481285
0.341253 0.0808881 0.479118
0.46389 0.0823072 0.477913
0.674403 0.0941176 0.465827
0.938659 0.13225 0.44007
1 0.176425 0.422782
1 0.221012 0.407416
0 0.0260624 0.284108
0 0.109361 0.371298
0.140703 0.196582 0.46772
0.333425 0.206958 0.476646
0.460105 0.206455 0.474235
0.668437 0.22089 0.456275
0.924331 0.263035 0.42742
1 0.306767 0.41088
1 0.349584 0.396735
0 0.128405 0.253254
0 0.183612 0.310552
0.0183871 0.236362 0.377401
0.314214 0.330587 0.469459
0.4533 0.329702 0.467262
0.650889 0.348196 0.442039
0.891447 0.39089 0.415351
1 0.43183 0.398535
1 0.471305 0.384283
0 0.268681 0.271641
0 0.31632 0.319249
0 0.357336 0.360433
0.14818 0.404196 0.408713
0.424231 0.445747 0.450996
0.620096 0.469795 0.430854
0.848051 0.50457 0.411872
1 0.539422 0.39556
1 0.573632 0.378546
0 0.387121 0.220188
0 0.440726 0.275074
0 0.501656 0.337484
0.0555123 0.565545 0.318288
0.226932 0.638575 0.278462
0.592584 0.588434 0.392844
0.773404 0.538689 0.380926
0.960403 0.538369 0.361578
1 0.582452 0.350545
0 0.668223 0.250797
0 0.740185 0.321675
0 0.814206 0.381247
0.00270085 0.852277 0.273335
0.102312 0.855604 0.166964
0.472389 0.817517 0.229984
0.789334 0.756252 0.360006
0.957824 0.709422 0.355657
1 0.663294 0.327367
0 0.96347 0.317342
0 1 0.384817
0 1 0.398688
0 1 0.244617
0.0337377 1 0.10959
0.33901 1 0.11577
0.744717 0.952529 0.291341
0.974731 0.918151 0.339223
1 0.873396 0.335119
0 1 0.362692
0 1 0.422736
0 1 0.409323
0 1 0.227527
0 1 0.0746471
0.23563 1 0.0464485
0.652705 1 0.1794
0.944427 1 0.303441
1 1 0.323568
0 0 0.599069
0 0 0.631449
0.175494 0 0.628672
0.341726 0 0.625971
0.462562 0 0.627466
0.661799 0 0.635676
0.924956 0 0.640192
1 0.0176699 0.639368
1 0.0540322 0.639292
0 0 0.529351
0 0.0701915 0.611856
0.170169 0.086244 0.630884
0.340139 0.0841382 0.63035
0.46302 0.0847791 0.63154
0.66743 0.0901503 0.639902
0.935058 0.110689 0.640009
1 0.144518 0.636133
1 0.183215 0.633997
0 0.0343786 0.439185
0 0.127687 0.53753
0.14934 0.203662 0.619745
0.332372 0.209751 0.627008
0.458381 0.209094 0.628046
0.658778 0.213107 0.633234
0.92459 0.235538 0.626734
1 0.272053 0.616175
1 0.31191 0.609201
0 0.101747 0.373373
0 0.174762 0.449912
0.0478218 0.251255 0.541421
0.317754 0.333684 0.618097
0.450065 0.332113 0.618891
0.641459 0.333669 0.619974
0.898817 0.359167 0.603189
1 0.397879 0.587503
1 0.437201 0.575006
0 0.205142 0.356786
0 0.258778 0.411215
0 0.319707 0.472023
0.179248 0.361852 0.548562
0.437186 0.448173 0.607401
0.621469 0.44715 0.604593
0.865675 0.47599 0.576822
1 0.512642 0.559533
1 0.54725 0.544457
0 0.398169 0.385916
0 0.440681 0.429496
0 0.482658 0.472694
0.0679942 0.503105 0.491142
0.250996 0.548028 0.535409
0.589258 0.585977 0.5785
0.815045 0.615808 0.553658
1 0.647837 0.536919
1 0.676936 0.517571
0 0.587259 0.355093
0 0.63299 0.40351
0 0.681819 0.455848
0.0102235 0.713481 0.432227
0.112718 0.768292 0.415015
0.328023 0.82034 0.343038
0.781933 0.749035 0.502297
0.94464 0.694575 0.492927
1 0.666026 0.465202
0 0.812665 0.389288
0 0.864942 0.438651
0 0.923934 0.496849
0 0.95845 0.429923
0.0451209 0.994217 0.353429
0.191806 1 0.225467
0.69279 0.958511 0.370855
0.965667 0.908751 0.465827
1 0.855833 0.461158
0 1 0.417685
0 1 0.471077
0 1 0.530983
0 1 0.421622
0 1 0.305348
0.0988632 1 0.149981
0.539467 1 0.218128
0.923522 1 0.404501
1 1 0.439841
0 0 0.767193
0 0 0.793667
0.179278 0 0.791424
0.344213 0 0.789822
0.464775 0 0.793256
0.669017 0 0.807111
0.926635 0 0.835126
1 0.00485237 0.853391
1 0.0326696 0.860777
0 0.0106966 0.709102
0 0.078706 0.781201
0.174762 0.0906844 0.795712
0.342611 0.0891432 0.796735
0.465019 0.0897536 0.800732
0.673564 0.0947433 0.814542
0.934966 0.106767 0.840909
1 0.12781 0.855802
1 0.157626 0.858915
0 0.0553597 0.621851
0 0.147997 0.720119
0.158709 0.210819 0.787213
0.335225 0.214389 0.793103
0.459739 0.21384 0.796887
0.663111 0.217288 0.807385
0.922438 0.22829 0.830915
1 0.249928 0.839384
1 0.280949 0.836301
0 0.104509 0.539406
0 0.192035 0.631098
0.07953 0.274327 0.72546
0.322545 0.337835 0.782513
0.450858 0.336431 0.784527
0.64242 0.337621 0.791379
0.89369 0.346716 0.808637
1 0.369482 0.808881
1 0.40209 0.798245
0 0.175586 0.495094
0 0.244541 0.564538
0.00383001 0.324514 0.645075
0.234974 0.389929 0.730297
0.440162 0.451133 0.770764
0.618128 0.450111 0.77351
0.86154 0.455543 0.783627
1 0.478676 0.772229
1 0.510811 0.752956
0 0.333471 0.493355
0 0.379294 0.539498
0 0.427955 0.588067
0.0733501 0.439826 0.631556
0.278309 0.491753 0.698558
0.58967 0.586954 0.755749
0.821836 0.586648 0.751919
1 0.616114 0.71986
1 0.647791 0.692317
0 0.593256 0.54493
0 0.626612 0.58088
0 0.655177 0.613062
0.0184329 0.654093 0.608164
0.129625 0.670802 0.622293
0.354955 0.711711 0.660639
0.772778 0.743969 0.714214
0.982086 0.767987 0.687984
1 0.796017 0.6654
0 0.750072 0.523156
0 0.777661 0.554025
0 0.806256 0.58616
0 0.818631 0.571939
0.05243 0.841688 0.544137
0.201862 0.917098 0.531411
0.552041 0.98146 0.466484
0.96379 0.905913 0.634318
1 0.847868 0.622614
0 0.916228 0.510689
0 0.950927 0.546929
0 0.994186 0.589761
0 1 0.576165
0.00991836 1 0.511879
0.109377 1 0.44004
0.366064 1 0.313649
0.894255 1 0.522667
1 1 0.593133
0 0 0.925826
0 0 0.948592
0.183948 0 0.94638
0.347753 0 0.945876
0.468299 0 0.950057
0.677821 0 0.964523
0.938399 0 0.994888
1 0.00460822 1
1 0.0251316 1
0 0.0267948 0.876066
0 0.0864118 0.939681
0.180789 0.0959182 0.951598
0.346624 0.0945144 0.952819
0.468681 0.0952316 0.957931
0.681514 0.0998703 0.971481
0.945754 0.11136 1
1 0.126101 1
1 0.14728 1
0 0.0776684 0.796368
0 0.164569 0.888563
0.167636 0.217334 0.944762
0.33933 0.219287 0.948745
0.462547 0.219104 0.953338
0.669917 0.222339 0.96466
0.930007 0.232212 0.990723
1 0.246021 1
1 0.267338 1
0 0.121874 0.709697
0 0.213962 0.8056
0.103639 0.292699 0.893889
0.328267 0.342809 0.937987
0.45304 0.341009 0.93933
0.647013 0.34229 0.947341
0.89897 0.350164 0.968597
1 0.36231 0.988037
1 0.383703 0.985168
0 0.175799 0.649134
0 0.256641 0.730388
0.0231327 0.339925 0.817334
0.265568 0.410849 0.896178
0.443488 0.454505 0.925002
0.620981 0.453483 0.927947
0.862379 0.457649 0.943511
1 0.465934 0.954772
1 0.486168 0.939651
0 0.300984 0.610224
0 0.356329 0.666636
0 0.419577 0.730694
0.114366 0.450401 0.795636
0.332555 0.516503 0.865141
0.593027 0.589853 0.907866
0.813672 0.588403 0.911574
1 0.594003 0.907301
1 0.616159 0.874388
0 0.560708 0.659617
0 0.591516 0.694026
0 0.616907 0.724788
0.0158083 0.603586 0.734478
0.121233 0.599557 0.760388
0.372168 0.641703 0.828016
0.774945 0.749187 0.891951
0.996536 0.74873 0.876295
1 0.773861 0.83415
0 0.75761 0.677897
0 0.777691 0.702785
0 0.7953 0.726009
0 0.787884 0.716548
0.0629587 0.785718 0.709209
0.222446 0.816419 0.733486
0.541772 0.889342 0.79176
0.955932 0.90367 0.847913
1 0.914366 0.818891
0 0.879194 0.624796
0 0.899489 0.649805
0 0.92221 0.67718
0 0.935805 0.682445
0.0161898 0.939406 0.643763
0.116442 0.987045 0.633021
0.351659 1 0.634943
0.803876 1 0.627543
1 1 0.772152
0 0 1
0.00225834 0 1
0.189212 0 1
0.351415 0 1
0.472343 0 1
0.686641 0 1
0.951507 0 1
1 0.00814832 1
1 0.023743 1
0 0.0409094 1
0 0.0932631 1
0.186923 0.100969 1
0.350607 0.0995956 1
0.472877 0.100542 1
0.690333 0.105074 1
0.956863 0.116152 1
1 0.129702 1
1 0.144656 1
0 0.0985275 0.972686
0 0.178103 1
0.175677 0.223133 1
0.34403 0.224155 1
0.465934 0.223835 1
0.677394 0.227207 1
0.940078 0.236851 1
1 0.248966 1
1 0.262745 1
0 0.143725 0.887419
0 0.23508 0.982162
0.122316 0.30721 1
0.333379 0.347219 1
0.455817 0.345434 1
0.652552 0.3467 1
0.906371 0.354269 1
1 0.364248 1
1 0.376333 1
0 0.189349 0.818677
0 0.276692 0.906172
0.0462959 0.35819 0.992798
0.284901 0.425238 1
0.446387 0.45745 1
0.624933 0.456336 1
0.866575 0.460502 1
1 0.466499 1
1 0.474357 1
0 0.290105 0.751125
0 0.356558 0.819196
0 0.432334 0.896147
0.152956 0.474556 0.968322
0.363943 0.538552 1
0.596353 0.592737 1
0.811795 0.590936 1
1 0.593378 1
1 0.597635 1
0 0.50869 0.757565
0 0.543236 0.796841
0 0.577203 0.837125
0.0275425 0.578775 0.867262
0.159503 0.584024 0.910079
0.439704 0.656809 0.99173
0.774411 0.74873 1
0.982086 0.744137 1
1 0.744472 1
0 0.73962 0.810391
0 0.754635 0.831128
0 0.767437 0.850538
0 0.752422 0.850294
0.0552224 0.728664 0.85066
0.211978 0.740917 0.890639
0.561822 0.812833 0.980682
0.960082 0.913314 1
1 0.918303 1
0 0.883101 0.778378
0 0.897414 0.798459
0 0.911147 0.818448
0 0.910719 0.819837
0.0232547 0.896757 0.798276
0.131197 0.916182 0.808331
0.380392 0.988449 0.863035
0.743297 1 0.928069
1 1 0.982361
