studio/luts/color/Saorín · 65 puntos.cube
TITLE "Generated by Resolve"
LUT_3D_SIZE 5
0.119554 0.0133364 0
0.195315 0 0.00946059
0.466133 0.0158541 0
0.899123 0.0889143 0
1 0.174823 0
0 0.14612 0
0.16022 0.218708 0.007187
0.406317 0.161364 0
0.808652 0.186236 0
1 0.302342 0
0 0.478401 0
0.131411 0.533364 0
0.44332 0.454475 0.00636301
0.779583 0.386526 0
1 0.319051 0
0 1 0.0808576
0.107454 1 0
0.466941 0.919814 0.00360113
0.853681 0.818524 0.0117952
1 0.760555 0
0 1 0.141665
0.0777295 1 0
0.452186 1 0
0.864393 1 0.00852979
1 1 0.0099031
0 0 0.201968
0.186816 0 0.25124
0.477195 0 0.219638
0.925734 0.0493477 0.166064
1 0.140352 0.13048
0 0.0805219 0.102968
0.0955978 0.179324 0.215457
0.46067 0.237018 0.203861
0.897704 0.308675 0.16875
1 0.391577 0.14023
0 0.295323 0.0599069
0 0.475486 0.136934
0.43566 0.448463 0.169574
0.773159 0.374395 0.137148
1 0.421729 0.110338
0 0.894682 0.179477
0 0.978576 0.108309
0.322255 0.892958 0.0269627
0.816999 0.782727 0.15317
1 0.708202 0.120424
0 1 0.279408
0 1 0.100999
0.221759 1 0
0.781216 1 0.0954299
1 1 0.143114
0 0 0.445075
0.175952 0 0.481117
0.462867 0 0.476921
0.930907 0.0027924 0.446784
1 0.0892653 0.411994
0 0.0260624 0.284108
0.140703 0.196582 0.46772
0.460105 0.206455 0.474235
0.924331 0.263035 0.42742
1 0.349584 0.396735
0 0.268681 0.271641
0 0.357336 0.360433
0.424231 0.445747 0.450996
0.848051 0.50457 0.411872
1 0.573632 0.378546
0 0.668223 0.250797
0 0.814206 0.381247
0.102312 0.855604 0.166964
0.789334 0.756252 0.360006
1 0.663294 0.327367
0 1 0.362692
0 1 0.409323
0 1 0.0746471
0.652705 1 0.1794
1 1 0.323568
0 0 0.767193
0.179278 0 0.791424
0.464775 0 0.793256
0.926635 0 0.835126
1 0.0326696 0.860777
0 0.0553597 0.621851
0.158709 0.210819 0.787213
0.459739 0.21384 0.796887
0.922438 0.22829 0.830915
1 0.280949 0.836301
0 0.175586 0.495094
0.00383001 0.324514 0.645075
0.440162 0.451133 0.770764
0.86154 0.455543 0.783627
1 0.510811 0.752956
0 0.593256 0.54493
0 0.655177 0.613062
0.129625 0.670802 0.622293
0.772778 0.743969 0.714214
1 0.796017 0.6654
0 0.916228 0.510689
0 0.994186 0.589761
0.00991836 1 0.511879
0.366064 1 0.313649
1 1 0.593133
0 0 1
0.189212 0 1
0.472343 0 1
0.951507 0 1
1 0.023743 1
0 0.0985275 0.972686
0.175677 0.223133 1
0.465934 0.223835 1
0.940078 0.236851 1
1 0.262745 1
0 0.189349 0.818677
0.0462959 0.35819 0.992798
0.446387 0.45745 1
0.866575 0.460502 1
1 0.474357 1
0 0.50869 0.757565
0 0.577203 0.837125
0.159503 0.584024 0.910079
0.774411 0.74873 1
1 0.744472 1
0 0.883101 0.778378
0 0.911147 0.818448
0.0232547 0.896757 0.798276
0.380392 0.988449 0.863035
1 1 0.982361
